X: 7970
T: Congress, The
R: reel
M: 4/4
K: Adorian
|:eAAG A2 B/c/d|eaaf gedB|eAc/B/A eAc/B/A|BGGA B2B/c/d|
eAAG A2 B/c/d|eaaf gedB|cBcd eged|c/B/ABG A2B/c/d:|
|:eaag ~a3g|eaag egdg|e/f/gdg e/f/gdg|eaaf gedg|
eaag ~a3g|eaaf gedB|c2cd e2ed|c/B/ABG A2 B/c/d:|

